dist/img/dots.svg

<svg width="54" height="17" viewBox="0 0 54 17" fill="none" xmlns="http://www.w3.org/2000/svg">
<path d="M24.6397 14.128C24.6397 12.9407 25.6022 11.9783 26.7895 11.9783C27.9767 11.9783 28.9392 12.9407 28.9392 14.128C28.9392 15.3153 27.9767 16.2778 26.7895 16.2778C25.6022 16.2778 24.6397 15.3153 24.6397 14.128Z" fill="#B40439"/>
<path d="M36.8077 14.1458C36.8077 12.9586 37.7702 11.9961 38.9575 11.9961C40.1447 11.9961 41.1072 12.9586 41.1072 14.1458C41.1072 15.3331 40.1447 16.2956 38.9575 16.2956C37.7702 16.2956 36.8077 15.3331 36.8077 14.1458Z" fill="#B40439"/>
<path d="M48.8077 14.1458C48.8077 12.9586 49.7702 11.9961 50.9575 11.9961C52.1447 11.9961 53.1072 12.9586 53.1072 14.1458C53.1072 15.3331 52.1447 16.2956 50.9575 16.2956C49.7702 16.2956 48.8077 15.3331 48.8077 14.1458Z" fill="#B40439"/>
<path d="M24.6397 14.128C24.6397 12.9407 25.6022 11.9783 26.7895 11.9783C27.9767 11.9783 28.9392 12.9407 28.9392 14.128C28.9392 15.3153 27.9767 16.2778 26.7895 16.2778C25.6022 16.2778 24.6397 15.3153 24.6397 14.128Z" fill="#B40439"/>
<path d="M36.8077 14.1458C36.8077 12.9586 37.7702 11.9961 38.9575 11.9961C40.1447 11.9961 41.1072 12.9586 41.1072 14.1458C41.1072 15.3331 40.1447 16.2956 38.9575 16.2956C37.7702 16.2956 36.8077 15.3331 36.8077 14.1458Z" fill="#B40439"/>
<path d="M48.8077 14.1458C48.8077 12.9586 49.7702 11.9961 50.9575 11.9961C52.1447 11.9961 53.1072 12.9586 53.1072 14.1458C53.1072 15.3331 52.1447 16.2956 50.9575 16.2956C49.7702 16.2956 48.8077 15.3331 48.8077 14.1458Z" fill="#B40439"/>
<path d="M24.6397 2.14975C24.6397 0.962475 25.6022 1.03795e-07 26.7895 0C27.9767 -1.03795e-07 28.9392 0.962475 28.9392 2.14975C28.9392 3.33702 27.9767 4.2995 26.7895 4.2995C25.6022 4.2995 24.6397 3.33702 24.6397 2.14975Z" fill="#B40439"/>
<path d="M36.8077 2.16757C36.8077 0.980297 37.7702 0.0178223 38.9575 0.0178222C40.1447 0.0178221 41.1072 0.980297 41.1072 2.16757C41.1072 3.35484 40.1447 4.31732 38.9575 4.31732C37.7702 4.31732 36.8077 3.35484 36.8077 2.16757Z" fill="#B40439"/>
<path d="M48.8077 2.16757C48.8077 0.980296 49.7702 0.0178212 50.9575 0.0178211C52.1447 0.017821 53.1072 0.980296 53.1072 2.16757C53.1072 3.35484 52.1447 4.31732 50.9575 4.31732C49.7702 4.31732 48.8077 3.35484 48.8077 2.16757Z" fill="#B40439"/>
<path d="M12.7305 14.1281C12.7305 12.9409 13.693 11.9784 14.8803 11.9784C16.0675 11.9784 17.03 12.9409 17.03 14.1281C17.03 15.3154 16.0675 16.2779 14.8803 16.2779C13.693 16.2779 12.7305 15.3154 12.7305 14.1281Z" fill="#B40439"/>
<path d="M12.7305 14.1281C12.7305 12.9409 13.693 11.9784 14.8803 11.9784C16.0675 11.9784 17.03 12.9409 17.03 14.1281C17.03 15.3154 16.0675 16.2779 14.8803 16.2779C13.693 16.2779 12.7305 15.3154 12.7305 14.1281Z" fill="#B40439"/>
<path d="M12.7305 2.14977C12.7305 0.962495 13.693 2.02184e-05 14.8803 2.01146e-05C16.0675 2.00108e-05 17.03 0.962495 17.03 2.14977C17.03 3.33704 16.0675 4.29952 14.8803 4.29952C13.693 4.29952 12.7305 3.33704 12.7305 2.14977Z" fill="#B40439"/>
<path d="M0.82129 14.1281C0.82129 12.9409 1.78377 11.9784 2.97104 11.9784C4.15831 11.9784 5.12079 12.9409 5.12079 14.1281C5.12079 15.3154 4.15831 16.2779 2.97104 16.2779C1.78377 16.2779 0.82129 15.3154 0.82129 14.1281Z" fill="#B40439"/>
<path d="M0.82129 14.1281C0.82129 12.9409 1.78377 11.9784 2.97104 11.9784C4.15831 11.9784 5.12079 12.9409 5.12079 14.1281C5.12079 15.3154 4.15831 16.2779 2.97104 16.2779C1.78377 16.2779 0.82129 15.3154 0.82129 14.1281Z" fill="#B40439"/>
<path d="M0.821289 2.14977C0.821289 0.962497 1.78376 2.12596e-05 2.97104 2.11558e-05C4.15831 2.1052e-05 5.12079 0.962496 5.12079 2.14977C5.12079 3.33704 4.15831 4.29952 2.97104 4.29952C1.78376 4.29952 0.821289 3.33704 0.821289 2.14977Z" fill="#B40439"/>
</svg>

<svg width="54" height="17" viewBox="0 0 54 17" fill="none" xmlns="http://www.w3.org/2000/svg"><path d="M24.6397 14.128c0-1.1873.9625-2.1497 2.1498-2.1497 1.1872 0 2.1497.9624 2.1497 2.1497s-.9625 2.1498-2.1497 2.1498c-1.1873 0-2.1498-.9625-2.1498-2.1498ZM36.8077 14.1458c0-1.1872.9625-2.1497 2.1498-2.1497 1.1872 0 2.1497.9625 2.1497 2.1497 0 1.1873-.9625 2.1498-2.1497 2.1498-1.1873 0-2.1498-.9625-2.1498-2.1498ZM48.8077 14.1458c0-1.1872.9625-2.1497 2.1498-2.1497 1.1872 0 2.1497.9625 2.1497 2.1497 0 1.1873-.9625 2.1498-2.1497 2.1498-1.1873 0-2.1498-.9625-2.1498-2.1498Z" fill="#B40439"/><path d="M24.6397 14.128c0-1.1873.9625-2.1497 2.1498-2.1497 1.1872 0 2.1497.9624 2.1497 2.1497s-.9625 2.1498-2.1497 2.1498c-1.1873 0-2.1498-.9625-2.1498-2.1498ZM36.8077 14.1458c0-1.1872.9625-2.1497 2.1498-2.1497 1.1872 0 2.1497.9625 2.1497 2.1497 0 1.1873-.9625 2.1498-2.1497 2.1498-1.1873 0-2.1498-.9625-2.1498-2.1498ZM48.8077 14.1458c0-1.1872.9625-2.1497 2.1498-2.1497 1.1872 0 2.1497.9625 2.1497 2.1497 0 1.1873-.9625 2.1498-2.1497 2.1498-1.1873 0-2.1498-.9625-2.1498-2.1498ZM24.6397 2.1498C24.6397.9625 25.6022 0 26.7895 0c1.1872 0 2.1497.9625 2.1497 2.1498 0 1.1872-.9625 2.1497-2.1497 2.1497-1.1873 0-2.1498-.9625-2.1498-2.1498ZM36.8077 2.1676c0-1.1873.9625-2.1498 2.1498-2.1498 1.1872 0 2.1497.9625 2.1497 2.1498 0 1.1872-.9625 2.1497-2.1497 2.1497-1.1873 0-2.1498-.9625-2.1498-2.1497ZM48.8077 2.1676c0-1.1873.9625-2.1498 2.1498-2.1498 1.1872 0 2.1497.9625 2.1497 2.1498 0 1.1872-.9625 2.1497-2.1497 2.1497-1.1873 0-2.1498-.9625-2.1498-2.1497ZM12.7305 14.1281c0-1.1872.9625-2.1497 2.1498-2.1497 1.1872 0 2.1497.9625 2.1497 2.1497 0 1.1873-.9625 2.1498-2.1497 2.1498-1.1873 0-2.1498-.9625-2.1498-2.1498Z" fill="#B40439"/><path d="M12.7305 14.1281c0-1.1872.9625-2.1497 2.1498-2.1497 1.1872 0 2.1497.9625 2.1497 2.1497 0 1.1873-.9625 2.1498-2.1497 2.1498-1.1873 0-2.1498-.9625-2.1498-2.1498ZM12.7305 2.1498C12.7305.9625 13.693 0 14.8803 0 16.0675 0 17.03.9625 17.03 2.1498c0 1.1872-.9625 2.1497-2.1497 2.1497-1.1873 0-2.1498-.9625-2.1498-2.1497ZM.8213 14.1281c0-1.1872.9625-2.1497 2.1497-2.1497 1.1873 0 2.1498.9625 2.1498 2.1497 0 1.1873-.9625 2.1498-2.1498 2.1498-1.1872 0-2.1497-.9625-2.1497-2.1498Z" fill="#B40439"/><path d="M.8213 14.1281c0-1.1872.9625-2.1497 2.1497-2.1497 1.1873 0 2.1498.9625 2.1498 2.1497 0 1.1873-.9625 2.1498-2.1498 2.1498-1.1872 0-2.1497-.9625-2.1497-2.1498ZM.8213 2.1498C.8213.9625 1.7838 0 2.971 0c1.1873 0 2.1498.9625 2.1498 2.1498 0 1.1872-.9625 2.1497-2.1498 2.1497-1.1872 0-2.1497-.9625-2.1497-2.1497Z" fill="#B40439"/></svg>
